X:1
T:Title
%%score { 1 | 2 }
L:1/8
M:3/4
K:Eb
V:1 treble nm="Grand Piano"
V:2 bass 
V:1
 z2 z2[Q:1/4=100] E>F | G3 G A>c | B2 G2 G>G | [DB][DF] [DA]2 D2 |[M:2/4] E4 |[M:1/4] E>F | %6
[M:3/4] G3 G A>c | B2 G2 [Ge]>[Ge] | dB c2 =A2 |[M:2/4] [B,DB]4 |[M:1/4] B>B |[M:3/4] B3 B B[AB] | %12
 [Ge]2 [GB]2 G>A | cB [GB]2 [EG]2 |[M:2/4] [DF]4 |[M:1/4] [DB]>[DA] |[M:3/4] G3 B Ee | %17
 d c3 [CEA]>[A,CF] | [G,B,E][F,B,D][K:treble] [B,EG]2 [A,DF]2 |[M:2/4] E4 |] %20
V:2
 z2 z2 [E,G,]>[E,A,E] | [E,B,E]3 [E,B,E] [E,CE]>[E,A,E] | [E,G,E]2 [E,B,E]2 [E,B,E]>[E,B,E] | %3
 [B,,B,][B,,B,] [B,,B,]2 [B,,A,B,]2 |[M:2/4] [E,G,B,]4 |[M:1/4] [E,G,B,]>[E,A,B,] | %6
[M:3/4] [E,B,E]3 [E,B,E] [E,CE]>[E,A,E] | [E,G,E]2 [E,B,E]2 [E,B,]>[E,B,] | %8
 [F,B,F][F,B,D] [F,=A,E]2 [F,CE]2 |[M:2/4] B,,4 |[M:1/4] B,>B, | %11
[M:3/4] [A,B,D]3 [A,CD] [G,B,E][F,B,] | [E,B,]2 [E,E]2 [E,B,E]>[E,G,E] | %13
 [A,E][G,B,E] [E,B,]2 [E,B,]2 |[M:2/4] [B,,B,]4 |[M:1/4] [B,,F,]>[B,,B,] | %16
[M:3/4] [E,B,E]3 [E,G,E] [E,G,B,][G,B,E] | [A,E] [A,E]3 A,,>A,, | B,,B,, B,,2 B,,2 |[M:2/4] E,4 |] %20

